Newaita-dark/apps/32/com.github.panosx2.brightness.svg

<svg height="32" viewBox="0 0 32 32" width="32" xmlns="http://www.w3.org/2000/svg" xmlns:xlink="http://www.w3.org/1999/xlink"><linearGradient id="a"><stop offset="0" stop-opacity=".313726"/><stop offset=".222222" stop-opacity=".27451"/><stop offset="1" stop-opacity="0"/></linearGradient><radialGradient id="b" cx="450.908936" cy="189.579361" gradientTransform="matrix(.00000017 -.0781325 -.140638 -.0000001 42.538587 63.595329)" gradientUnits="userSpaceOnUse" r="21.166656" xlink:href="#a"/><radialGradient id="c" cx="450.908936" cy="189.579361" gradientTransform="matrix(-.00000017 .0781325 .140638 .0000001 -10.785554 -7.527482)" gradientUnits="userSpaceOnUse" r="21.166656" xlink:href="#a"/><radialGradient id="d" cx="450.908936" cy="189.579361" gradientTransform="matrix(-.00000017 -.0781325 .140638 -.0000001 -10.785554 63.595329)" gradientUnits="userSpaceOnUse" r="21.166656" xlink:href="#a"/><radialGradient id="e" cx="450.908936" cy="189.579361" gradientTransform="matrix(.00000017 .0781325 -.140638 .0000001 42.538585 -7.527483)" gradientUnits="userSpaceOnUse" r="21.166656" xlink:href="#a"/><linearGradient id="f" gradientTransform="matrix(.00190858 0 0 .062506 15.389212 13.438784)" gradientUnits="userSpaceOnUse" x1="255.323059" x2="255.323044" y1="233.5" y2="254.666656"><stop offset="0" stop-opacity=".27451"/><stop offset="1" stop-opacity="0"/></linearGradient><linearGradient id="g"><stop offset="0" stop-color="#424242"/><stop offset="1" stop-color="#616161"/></linearGradient><linearGradient id="h" gradientUnits="userSpaceOnUse" x1="15.87648" x2="15.87648" xlink:href="#g" y1="28.03386419623" y2="2.89610370009"/><linearGradient id="i" gradientUnits="userSpaceOnUse" x1="18.52261200006" x2="18.52261200006" xlink:href="#g" y1="24.72632449997" y2="6.2037135"/><linearGradient id="j" gradientUnits="userSpaceOnUse" x1="400" x2="960" y1="935.117188" y2="935.117188"><stop offset="0" stop-color="#eee"/><stop offset="1" stop-color="#e0e0e0"/></linearGradient><path d="m16.207031 28.035156h2.644531v-1.324218h-2.644531zm0 0" fill="url(#b)"/><path d="m15.546875 28.035156h-2.648437v1.320313h2.648437zm0 0" fill="url(#c)"/><path d="m15.546875 28.035156h-2.648437v-1.324218h2.648437zm0 0" fill="url(#d)"/><path d="m16.207031 28.035156h2.644531v1.320313h-2.644531zm0 0" fill="url(#e)"/><path d="m15.546875 27.703125h.660156v1.652344h-.660156zm0 0" fill="url(#f)"/><path d="m15.875 2.914062c-.335938 0-.675781.128907-.933594.390626l-2.902344 2.898437h-4.101562c-.730469 0-1.324219.589844-1.324219 1.324219v4.101562l-2.898437 2.902344c-.519532.515625-.519532 1.351562 0 1.871094l2.898437 2.898437v4.101563c0 .734375.59375 1.324218 1.324219 1.324218h4.101562l2.902344 2.898438c.519532.519531 1.351563.519531 1.871094 0l2.898438-2.898438h4.105468c.730469 0 1.320313-.589843 1.320313-1.324218v-4.101563l2.902343-2.898437c.519532-.519532.519532-1.355469 0-1.871094l-2.902343-2.902344v-4.101562c0-.734375-.589844-1.324219-1.320313-1.324219h-4.105468l-2.898438-2.898437c-.257812-.261719-.597656-.390626-.9375-.390626zm0 0" fill="url(#h)"/><path d="m15.875 6.203125c5.117188 0 9.261719 4.148437 9.261719 9.261719 0 5.113281-4.144531 9.261718-9.261719 9.261718-5.113281 0-9.261719-4.148437-9.261719-9.261718 0-5.113282 4.148438-9.261719 9.261719-9.261719zm0 0" fill="url(#i)"/><path d="m959.908384 375.082311c-310.127881 0-560.02529 249.897409-560.02529 560.02529 0 310.364079 249.897409 560.02529 560.02529 560.02529zm0 0" fill="url(#j)" stroke="#212121" stroke-linecap="round" stroke-linejoin="round" stroke-width="11.338583" transform="scale(.016538)"/><path d="m15.875 2.914062c-.335938 0-.675781.128907-.933594.390626l-2.902344 2.898437h-4.101562c-.730469 0-1.324219.589844-1.324219 1.324219v.3125c0-.734375.59375-1.324219 1.324219-1.324219h4.101562l2.902344-2.898437c.257813-.261719.597656-.390626.933594-.390626.339844 0 .679688.128907.9375.390626l2.898438 2.898437h4.105468c.730469 0 1.320313.589844 1.320313 1.324219v-.3125c0-.734375-.589844-1.324219-1.320313-1.324219h-4.105468l-2.898438-2.898437c-.257812-.261719-.597656-.390626-.9375-.390626zm-9.261719 8.714844-2.898437 2.902344c-.300782.296875-.425782.703125-.378906 1.089844.035156-.285156.160156-.558594.378906-.777344l2.898437-2.902344zm18.523438 0v.3125l2.902343 2.902344c.21875.21875.34375.492188.378907.777344.046875-.386719-.082031-.792969-.378907-1.089844zm0 0" fill="#fff" fill-opacity=".392157"/><path d="m15.875 28.015625c-.335938 0-.675781-.128906-.933594-.390625l-2.902344-2.898438h-4.101562c-.730469 0-1.324219-.589843-1.324219-1.324218v-.3125c0 .734375.59375 1.324218 1.324219 1.324218h4.101562l2.902344 2.902344c.257813.257813.597656.386719.933594.386719.339844 0 .679688-.128906.9375-.386719l2.898438-2.902344h4.105468c.730469 0 1.320313-.589843 1.320313-1.324218v.3125c0 .734375-.589844 1.324218-1.320313 1.324218h-4.105468l-2.898438 2.898438c-.257812.261719-.597656.390625-.9375.390625zm-9.261719-8.714844-2.898437-2.898437c-.300782-.300782-.425782-.707032-.378906-1.09375.035156.285156.160156.558594.378906.78125l2.898437 2.898437zm18.523438 0v-.3125l2.902343-2.898437c.21875-.222656.34375-.496094.378907-.78125.046875.386718-.082031.792968-.378907 1.09375zm0 0" fill-opacity=".235294"/><path d="m15.875 2.820312c-.359375 0-.722656.140626-1 .417969l-2.875 2.871094h-4.0625c-.78125 0-1.417969.632813-1.417969 1.417969v4.0625l-2.871093 2.875c-.554688.550781-.554688 1.449218 0 2.003906l2.871093 2.871094v4.0625c0 .785156.636719 1.417968 1.417969 1.417968h4.0625l2.875 2.871094c.554688.554688 1.449219.554688 2.003906 0l2.871094-2.871094h4.066406c.78125 0 1.414063-.632812 1.414063-1.417968v-4.0625l2.875-2.871094c.554687-.554688.554687-1.453125 0-2.003906l-2.875-2.875v-4.0625c0-.785156-.632813-1.417969-1.414063-1.417969h-4.066406l-2.871094-2.871094c-.277344-.277343-.640625-.417969-1.003906-.417969zm0 .1875c.316406 0 .628906.121094.871094.363282l2.898437 2.898437c.019531.019531.042969.027344.066407.027344h4.105468c.679688 0 1.226563.546875 1.226563 1.230469v4.101562c0 .023438.011719.046875.027343.066406l2.902344 2.902344c.480469.480469.480469 1.253906 0 1.738282l-2.902344 2.898437c-.015624.019531-.027343.042969-.027343.066406v4.101563c0 .683594-.546875 1.230468-1.226563 1.230468h-4.105468c-.023438 0-.046876.007813-.066407.027344l-2.898437 2.902344c-.484375.480469-1.257813.480469-1.738282 0l-2.902343-2.902344c-.015625-.019531-.039063-.027344-.066407-.027344h-4.101562c-.683594 0-1.230469-.546874-1.230469-1.230468v-4.101563c.003907-.023437-.007812-.046875-.027343-.066406l-2.898438-2.898437c-.484375-.484376-.484375-1.257813 0-1.738282l2.898438-2.902344c.019531-.019531.03125-.042968.027343-.066406v-4.101562c0-.683594.546875-1.230469 1.230469-1.230469h4.101562c.027344 0 .050782-.007813.066407-.027344l2.902343-2.898437c.242188-.242188.554688-.363282.867188-.363282zm0 0" fill="#212121" fill-opacity=".963235"/><path d="m15.875 6.203125c-5.128906 0-9.261719 4.132813-9.261719 9.261719 0 .054687.003907.109375.003907.164062.085937-5.050781 4.183593-9.09375 9.257812-9.09375 5.078125 0 9.171875 4.042969 9.261719 9.09375 0-.054687 0-.109375 0-.164062 0-5.128906-4.128907-9.261719-9.261719-9.261719zm0 0" fill="#fff" fill-opacity=".392157"/><path d="m15.875 25.058594c-5.128906 0-9.261719-4.132813-9.261719-9.261719 0-.054687.003907-.113281.003907-.167969.085937 5.054688 4.183593 9.097656 9.257812 9.097656 5.078125 0 9.171875-4.042968 9.261719-9.097656v.167969c0 5.128906-4.128907 9.261719-9.261719 9.261719zm0 0" fill-opacity=".235294"/><path d="m253.975747-115.759477c81.867182 0 148.17335 66.368662 148.17335 148.17335s-66.306168 148.17335-148.17335 148.17335c-81.804689 0-148.173351-66.368662-148.173351-148.17335s66.368662-148.17335 148.173351-148.17335zm0 0" fill="none" stroke="#212121" stroke-linecap="round" stroke-linejoin="round" stroke-width="2.546624" transform="matrix(.062506 0 0 .062506 0 13.438783)"/></svg>

<?xml version="1.0" encoding="UTF-8"?>
<svg xmlns="http://www.w3.org/2000/svg" xmlns:xlink="http://www.w3.org/1999/xlink" width="32px" height="32px" viewBox="0 0 32 32" version="1.1">
<defs>
<radialGradient id="radial0" gradientUnits="userSpaceOnUse" cx="450.908936" cy="189.579361" fx="450.908936" fy="189.579361" r="21.166656" gradientTransform="matrix(0.00000017417,-0.0781325,-0.140638,-0.000000101539,42.538587,63.595329)">
<stop offset="0" style="stop-color:rgb(0%,0%,0%);stop-opacity:0.313726;"/>
<stop offset="0.222222" style="stop-color:rgb(0%,0%,0%);stop-opacity:0.27451;"/>
<stop offset="1" style="stop-color:rgb(0%,0%,0%);stop-opacity:0;"/>
</radialGradient>
<radialGradient id="radial1" gradientUnits="userSpaceOnUse" cx="450.908936" cy="189.579361" fx="450.908936" fy="189.579361" r="21.166656" gradientTransform="matrix(-0.00000017417,0.0781325,0.140638,0.000000101539,-10.785554,-7.527482)">
<stop offset="0" style="stop-color:rgb(0%,0%,0%);stop-opacity:0.313726;"/>
<stop offset="0.222222" style="stop-color:rgb(0%,0%,0%);stop-opacity:0.27451;"/>
<stop offset="1" style="stop-color:rgb(0%,0%,0%);stop-opacity:0;"/>
</radialGradient>
<radialGradient id="radial2" gradientUnits="userSpaceOnUse" cx="450.908936" cy="189.579361" fx="450.908936" fy="189.579361" r="21.166656" gradientTransform="matrix(-0.00000017417,-0.0781325,0.140638,-0.000000101539,-10.785554,63.595329)">
<stop offset="0" style="stop-color:rgb(0%,0%,0%);stop-opacity:0.313726;"/>
<stop offset="0.222222" style="stop-color:rgb(0%,0%,0%);stop-opacity:0.27451;"/>
<stop offset="1" style="stop-color:rgb(0%,0%,0%);stop-opacity:0;"/>
</radialGradient>
<radialGradient id="radial3" gradientUnits="userSpaceOnUse" cx="450.908936" cy="189.579361" fx="450.908936" fy="189.579361" r="21.166656" gradientTransform="matrix(0.00000017417,0.0781325,-0.140638,0.000000101539,42.538585,-7.527483)">
<stop offset="0" style="stop-color:rgb(0%,0%,0%);stop-opacity:0.313726;"/>
<stop offset="0.222222" style="stop-color:rgb(0%,0%,0%);stop-opacity:0.27451;"/>
<stop offset="1" style="stop-color:rgb(0%,0%,0%);stop-opacity:0;"/>
</radialGradient>
<linearGradient id="linear0" gradientUnits="userSpaceOnUse" x1="255.323059" y1="233.5" x2="255.323044" y2="254.666656" gradientTransform="matrix(0.00190858,0,0,0.062506,15.389212,13.438784)">
<stop offset="0" style="stop-color:rgb(0%,0%,0%);stop-opacity:0.27451;"/>
<stop offset="1" style="stop-color:rgb(0%,0%,0%);stop-opacity:0;"/>
</linearGradient>
<linearGradient id="linear1" gradientUnits="userSpaceOnUse" x1="960" y1="1695.118164" x2="960" y2="175.118134" gradientTransform="matrix(0.016538,0,0,0.016538,0,0)">
<stop offset="0" style="stop-color:rgb(25.882354%,25.882354%,25.882354%);stop-opacity:1;"/>
<stop offset="1" style="stop-color:rgb(38.039216%,38.039216%,38.039216%);stop-opacity:1;"/>
</linearGradient>
<linearGradient id="linear2" gradientUnits="userSpaceOnUse" x1="296.333344" y1="180.583328" x2="296.333344" y2="-115.75" gradientTransform="matrix(0.062506,0,0,0.062506,0,13.438783)">
<stop offset="0" style="stop-color:rgb(25.882354%,25.882354%,25.882354%);stop-opacity:1;"/>
<stop offset="1" style="stop-color:rgb(38.039216%,38.039216%,38.039216%);stop-opacity:1;"/>
</linearGradient>
<linearGradient id="linear3" gradientUnits="userSpaceOnUse" x1="400" y1="935.117188" x2="960" y2="935.117188" gradientTransform="matrix(1,0,0,1,0,0)">
<stop offset="0" style="stop-color:rgb(93.333334%,93.333334%,93.333334%);stop-opacity:1;"/>
<stop offset="1" style="stop-color:rgb(87.843138%,87.843138%,87.843138%);stop-opacity:1;"/>
</linearGradient>
</defs>
<g id="surface1">
<path style=" stroke:none;fill-rule:nonzero;fill:url(#radial0);" d="M 16.207031 28.035156 L 18.851562 28.035156 L 18.851562 26.710938 L 16.207031 26.710938 Z M 16.207031 28.035156 "/>
<path style=" stroke:none;fill-rule:nonzero;fill:url(#radial1);" d="M 15.546875 28.035156 L 12.898438 28.035156 L 12.898438 29.355469 L 15.546875 29.355469 Z M 15.546875 28.035156 "/>
<path style=" stroke:none;fill-rule:nonzero;fill:url(#radial2);" d="M 15.546875 28.035156 L 12.898438 28.035156 L 12.898438 26.710938 L 15.546875 26.710938 Z M 15.546875 28.035156 "/>
<path style=" stroke:none;fill-rule:nonzero;fill:url(#radial3);" d="M 16.207031 28.035156 L 18.851562 28.035156 L 18.851562 29.355469 L 16.207031 29.355469 Z M 16.207031 28.035156 "/>
<path style=" stroke:none;fill-rule:nonzero;fill:url(#linear0);" d="M 15.546875 27.703125 L 16.207031 27.703125 L 16.207031 29.355469 L 15.546875 29.355469 Z M 15.546875 27.703125 "/>
<path style=" stroke:none;fill-rule:nonzero;fill:url(#linear1);" d="M 15.875 2.914062 C 15.539062 2.914062 15.199219 3.042969 14.941406 3.304688 L 12.039062 6.203125 L 7.9375 6.203125 C 7.207031 6.203125 6.613281 6.792969 6.613281 7.527344 L 6.613281 11.628906 L 3.714844 14.53125 C 3.195312 15.046875 3.195312 15.882812 3.714844 16.402344 L 6.613281 19.300781 L 6.613281 23.402344 C 6.613281 24.136719 7.207031 24.726562 7.9375 24.726562 L 12.039062 24.726562 L 14.941406 27.625 C 15.460938 28.144531 16.292969 28.144531 16.8125 27.625 L 19.710938 24.726562 L 23.816406 24.726562 C 24.546875 24.726562 25.136719 24.136719 25.136719 23.402344 L 25.136719 19.300781 L 28.039062 16.402344 C 28.558594 15.882812 28.558594 15.046875 28.039062 14.53125 L 25.136719 11.628906 L 25.136719 7.527344 C 25.136719 6.792969 24.546875 6.203125 23.816406 6.203125 L 19.710938 6.203125 L 16.8125 3.304688 C 16.554688 3.042969 16.214844 2.914062 15.875 2.914062 Z M 15.875 2.914062 "/>
<path style=" stroke:none;fill-rule:nonzero;fill:url(#linear2);" d="M 15.875 6.203125 C 20.992188 6.203125 25.136719 10.351562 25.136719 15.464844 C 25.136719 20.578125 20.992188 24.726562 15.875 24.726562 C 10.761719 24.726562 6.613281 20.578125 6.613281 15.464844 C 6.613281 10.351562 10.761719 6.203125 15.875 6.203125 Z M 15.875 6.203125 "/>
<path style="fill-rule:nonzero;fill:url(#linear3);stroke-width:11.338583;stroke-linecap:round;stroke-linejoin:round;stroke:rgb(12.941177%,12.941177%,12.941177%);stroke-opacity:1;stroke-miterlimit:4;" d="M 959.908384 375.082311 C 649.780503 375.082311 399.883094 624.97972 399.883094 935.107601 C 399.883094 1245.47168 649.780503 1495.132891 959.908384 1495.132891 Z M 959.908384 375.082311 " transform="matrix(0.016538,0,0,0.016538,0,0)"/>
<path style=" stroke:none;fill-rule:nonzero;fill:rgb(100%,100%,100%);fill-opacity:0.392157;" d="M 15.875 2.914062 C 15.539062 2.914062 15.199219 3.042969 14.941406 3.304688 L 12.039062 6.203125 L 7.9375 6.203125 C 7.207031 6.203125 6.613281 6.792969 6.613281 7.527344 L 6.613281 7.839844 C 6.613281 7.105469 7.207031 6.515625 7.9375 6.515625 L 12.039062 6.515625 L 14.941406 3.617188 C 15.199219 3.355469 15.539062 3.226562 15.875 3.226562 C 16.214844 3.226562 16.554688 3.355469 16.8125 3.617188 L 19.710938 6.515625 L 23.816406 6.515625 C 24.546875 6.515625 25.136719 7.105469 25.136719 7.839844 L 25.136719 7.527344 C 25.136719 6.792969 24.546875 6.203125 23.816406 6.203125 L 19.710938 6.203125 L 16.8125 3.304688 C 16.554688 3.042969 16.214844 2.914062 15.875 2.914062 Z M 6.613281 11.628906 L 3.714844 14.53125 C 3.414062 14.828125 3.289062 15.234375 3.335938 15.621094 C 3.371094 15.335938 3.496094 15.0625 3.714844 14.84375 L 6.613281 11.941406 Z M 25.136719 11.628906 L 25.136719 11.941406 L 28.039062 14.84375 C 28.257812 15.0625 28.382812 15.335938 28.417969 15.621094 C 28.464844 15.234375 28.335938 14.828125 28.039062 14.53125 Z M 25.136719 11.628906 "/>
<path style=" stroke:none;fill-rule:nonzero;fill:rgb(0%,0%,0%);fill-opacity:0.235294;" d="M 15.875 28.015625 C 15.539062 28.015625 15.199219 27.886719 14.941406 27.625 L 12.039062 24.726562 L 7.9375 24.726562 C 7.207031 24.726562 6.613281 24.136719 6.613281 23.402344 L 6.613281 23.089844 C 6.613281 23.824219 7.207031 24.414062 7.9375 24.414062 L 12.039062 24.414062 L 14.941406 27.316406 C 15.199219 27.574219 15.539062 27.703125 15.875 27.703125 C 16.214844 27.703125 16.554688 27.574219 16.8125 27.316406 L 19.710938 24.414062 L 23.816406 24.414062 C 24.546875 24.414062 25.136719 23.824219 25.136719 23.089844 L 25.136719 23.402344 C 25.136719 24.136719 24.546875 24.726562 23.816406 24.726562 L 19.710938 24.726562 L 16.8125 27.625 C 16.554688 27.886719 16.214844 28.015625 15.875 28.015625 Z M 6.613281 19.300781 L 3.714844 16.402344 C 3.414062 16.101562 3.289062 15.695312 3.335938 15.308594 C 3.371094 15.59375 3.496094 15.867188 3.714844 16.089844 L 6.613281 18.988281 Z M 25.136719 19.300781 L 25.136719 18.988281 L 28.039062 16.089844 C 28.257812 15.867188 28.382812 15.59375 28.417969 15.308594 C 28.464844 15.695312 28.335938 16.101562 28.039062 16.402344 Z M 25.136719 19.300781 "/>
<path style=" stroke:none;fill-rule:nonzero;fill:rgb(12.941177%,12.941177%,12.941177%);fill-opacity:0.963235;" d="M 15.875 2.820312 C 15.515625 2.820312 15.152344 2.960938 14.875 3.238281 L 12 6.109375 L 7.9375 6.109375 C 7.15625 6.109375 6.519531 6.742188 6.519531 7.527344 L 6.519531 11.589844 L 3.648438 14.464844 C 3.09375 15.015625 3.09375 15.914062 3.648438 16.46875 L 6.519531 19.339844 L 6.519531 23.402344 C 6.519531 24.1875 7.15625 24.820312 7.9375 24.820312 L 12 24.820312 L 14.875 27.691406 C 15.429688 28.246094 16.324219 28.246094 16.878906 27.691406 L 19.75 24.820312 L 23.816406 24.820312 C 24.597656 24.820312 25.230469 24.1875 25.230469 23.402344 L 25.230469 19.339844 L 28.105469 16.46875 C 28.660156 15.914062 28.660156 15.015625 28.105469 14.464844 L 25.230469 11.589844 L 25.230469 7.527344 C 25.230469 6.742188 24.597656 6.109375 23.816406 6.109375 L 19.75 6.109375 L 16.878906 3.238281 C 16.601562 2.960938 16.238281 2.820312 15.875 2.820312 Z M 15.875 3.007812 C 16.191406 3.007812 16.503906 3.128906 16.746094 3.371094 L 19.644531 6.269531 C 19.664062 6.289062 19.6875 6.296875 19.710938 6.296875 L 23.816406 6.296875 C 24.496094 6.296875 25.042969 6.84375 25.042969 7.527344 L 25.042969 11.628906 C 25.042969 11.652344 25.054688 11.675781 25.070312 11.695312 L 27.972656 14.597656 C 28.453125 15.078125 28.453125 15.851562 27.972656 16.335938 L 25.070312 19.234375 C 25.054688 19.253906 25.042969 19.277344 25.042969 19.300781 L 25.042969 23.402344 C 25.042969 24.085938 24.496094 24.632812 23.816406 24.632812 L 19.710938 24.632812 C 19.6875 24.632812 19.664062 24.640625 19.644531 24.660156 L 16.746094 27.5625 C 16.261719 28.042969 15.488281 28.042969 15.007812 27.5625 L 12.105469 24.660156 C 12.089844 24.640625 12.066406 24.632812 12.039062 24.632812 L 7.9375 24.632812 C 7.253906 24.632812 6.707031 24.085938 6.707031 23.402344 L 6.707031 19.300781 C 6.710938 19.277344 6.699219 19.253906 6.679688 19.234375 L 3.78125 16.335938 C 3.296875 15.851562 3.296875 15.078125 3.78125 14.597656 L 6.679688 11.695312 C 6.699219 11.675781 6.710938 11.652344 6.707031 11.628906 L 6.707031 7.527344 C 6.707031 6.84375 7.253906 6.296875 7.9375 6.296875 L 12.039062 6.296875 C 12.066406 6.296875 12.089844 6.289062 12.105469 6.269531 L 15.007812 3.371094 C 15.25 3.128906 15.5625 3.007812 15.875 3.007812 Z M 15.875 3.007812 "/>
<path style=" stroke:none;fill-rule:nonzero;fill:rgb(100%,100%,100%);fill-opacity:0.392157;" d="M 15.875 6.203125 C 10.746094 6.203125 6.613281 10.335938 6.613281 15.464844 C 6.613281 15.519531 6.617188 15.574219 6.617188 15.628906 C 6.703125 10.578125 10.800781 6.535156 15.875 6.535156 C 20.953125 6.535156 25.046875 10.578125 25.136719 15.628906 C 25.136719 15.574219 25.136719 15.519531 25.136719 15.464844 C 25.136719 10.335938 21.007812 6.203125 15.875 6.203125 Z M 15.875 6.203125 "/>
<path style=" stroke:none;fill-rule:nonzero;fill:rgb(0%,0%,0%);fill-opacity:0.235294;" d="M 15.875 25.058594 C 10.746094 25.058594 6.613281 20.925781 6.613281 15.796875 C 6.613281 15.742188 6.617188 15.683594 6.617188 15.628906 C 6.703125 20.683594 10.800781 24.726562 15.875 24.726562 C 20.953125 24.726562 25.046875 20.683594 25.136719 15.628906 C 25.136719 15.683594 25.136719 15.742188 25.136719 15.796875 C 25.136719 20.925781 21.007812 25.058594 15.875 25.058594 Z M 15.875 25.058594 "/>
<path style="fill:none;stroke-width:2.546624;stroke-linecap:round;stroke-linejoin:round;stroke:rgb(12.941177%,12.941177%,12.941177%);stroke-opacity:1;stroke-miterlimit:4;" d="M 253.975747 -115.759477 C 335.842929 -115.759477 402.149097 -49.390815 402.149097 32.413873 C 402.149097 114.218561 335.842929 180.587223 253.975747 180.587223 C 172.171058 180.587223 105.802396 114.218561 105.802396 32.413873 C 105.802396 -49.390815 172.171058 -115.759477 253.975747 -115.759477 Z M 253.975747 -115.759477 " transform="matrix(0.062506,0,0,0.062506,0,13.438783)"/>
</g>
</svg>
